X: 23763
T: Little Diamond, The
R: polka
M: 2/4
K: Gmajor
|:d>e dB|G>F GB|d>e d>B|cB A2|
GA Bc|de fg|ag fa|g2 g2:|
g2 g>a|bg c'a|bg fg|ba a2|
bg c'a|bg fe|dc' af|g2 g2|
g2 g>a|bg fa|bg fg|ba a2|
bg fa|bgfe|dg af|g2 g2|

